X:1
T:St. Martin, 66.66
T:St. Martin, 66.66
T:Caspar Ett, Canta Sacra, 1840
T:Public Domain Courtesy of the Cyber Hymnal™
C:Caspar Ett, Canta Sacra, 1840
Z:Public Domain
Z:Courtesy of the Cyber Hymnal™
%%score ( 1 2 ) ( 3 4 )
L:1/8
Q:1/4=115
M:none
K:Eb
V:1 treble 
V:2 treble 
V:3 bass 
V:4 bass 
V:1
 [EB]2 [EG]2 [EA]2 [EG]2 | F4 E4 | E2 [EG]2 [FB]2 [DB]2 | [Fc]4 [DB]4 | [Fc]2 [Fd]2 [Ee]2 [Fd]2 | %5
 [Ec]4 [DB]4 | [EB]2 [Ec]2 [FA]2 [EG]2 | F4 E4 |] %8
V:2
 x8 | E2 D2 E4 | E2 x6 | x8 | x8 | x8 | x8 | (E2 D2) E4 |] %8
V:3
 [E,G,]2 [E,B,]2 [A,,C]2 [E,B,]2 | [B,,B,]4 [E,G,]4 | [E,G,]2 [E,B,]2 [D,B,]2 [G,B,]2 | %3
 (B,2 =A,2) [B,,B,]4 | [F,=A,]2 [D,B,]2 [C,G,]2 [D,B,]2 | ([E,G,]2 [F,=A,]2) [G,B,]4 | %6
 [E,G,]2 [C,G,]2 [D,B,]2 [E,B,]2 | [B,,B,]4 [E,G,]4 |] %8
V:4
 x8 | x8 | x8 | F,4 x4 | x8 | x8 | x8 | x8 |] %8

